public/icon.svg

<svg width="192" height="192" viewBox="0 0 192 192" fill="none" xmlns="http://www.w3.org/2000/svg">
<g clip-path="url(#clip0_101_2)">
<path d="M115.093 17.7231H141.973C148.335 17.7231 153.493 22.8812 153.493 29.2431V48.4431C153.493 52.6855 150.055 56.1231 145.813 56.1231H122.773C118.53 56.1231 115.093 52.6855 115.093 48.4431V17.7231Z" fill="url(#paint0_linear_101_2)" style=""/>
<path d="M76.6929 56.1231H107.413C111.655 56.1231 115.093 59.5606 115.093 63.8031V86.8431C115.093 91.0855 111.655 94.5231 107.413 94.5231H76.6929V56.1231Z" fill="url(#paint1_linear_101_2)" style=""/>
<path d="M122.773 94.5231H145.813C150.055 94.5231 153.493 97.9606 153.493 102.203V121.403C153.493 127.765 148.335 132.923 141.973 132.923H115.093V102.203C115.093 97.9606 118.53 94.5231 122.773 94.5231Z" fill="url(#paint2_linear_101_2)" style=""/>
<path d="M65.1731 56.1231C71.5349 56.1231 76.6931 50.9649 76.6931 44.6031V17.7231H38.2931C17.0845 17.7231 -0.106934 34.9145 -0.106934 56.1231V171.323H38.2931V132.923H65.1731C71.5349 132.923 76.6931 127.765 76.6931 121.403V106.043C76.6931 99.6812 71.5349 94.5231 65.1731 94.5231H38.2931V56.1231H65.1731Z" fill="url(#paint3_linear_101_2)" style=""/>
<path d="M76.6929 132.923H107.413C111.655 132.923 115.093 136.361 115.093 140.603V171.323H76.6929V132.923Z" fill="url(#paint4_linear_101_2)" style=""/>
<path d="M191.893 75.3231C191.893 64.7192 183.297 56.1231 172.693 56.1231C162.089 56.1231 153.493 64.7192 153.493 75.3231C153.493 85.9269 162.089 94.5231 172.693 94.5231C183.297 94.5231 191.893 85.9269 191.893 75.3231Z" fill="#CE3F3D" style="fill:#CE3F3D;fill:color(display-p3 0.8078 0.2471 0.2392);fill-opacity:1;"/>
</g>
<defs>
<linearGradient id="paint0_linear_101_2" x1="53.6639" y1="-42.5797" x2="222.28" y2="126.037" gradientUnits="userSpaceOnUse">
<stop stop-color="#F4DA0B" style="stop-color:#F4DA0B;stop-color:color(display-p3 0.9569 0.8549 0.0431);stop-opacity:1;"/>
<stop offset="0.18" stop-color="#EEB756" style="stop-color:#EEB756;stop-color:color(display-p3 0.9333 0.7176 0.3373);stop-opacity:1;"/>
<stop offset="0.4" stop-color="#E26264" style="stop-color:#E26264;stop-color:color(display-p3 0.8863 0.3843 0.3922);stop-opacity:1;"/>
<stop offset="0.6" stop-color="#D26058" style="stop-color:#D26058;stop-color:color(display-p3 0.8235 0.3765 0.3451);stop-opacity:1;"/>
<stop offset="0.78" stop-color="#745BA2" style="stop-color:#745BA2;stop-color:color(display-p3 0.4549 0.3569 0.6353);stop-opacity:1;"/>
<stop offset="1" stop-color="#5352A0" style="stop-color:#5352A0;stop-color:color(display-p3 0.3255 0.3216 0.6275);stop-opacity:1;"/>
</linearGradient>
<linearGradient id="paint1_linear_101_2" x1="14.7027" y1="-3.61846" x2="183.319" y2="164.998" gradientUnits="userSpaceOnUse">
<stop stop-color="#F4DA0B" style="stop-color:#F4DA0B;stop-color:color(display-p3 0.9569 0.8549 0.0431);stop-opacity:1;"/>
<stop offset="0.18" stop-color="#EEB756" style="stop-color:#EEB756;stop-color:color(display-p3 0.9333 0.7176 0.3373);stop-opacity:1;"/>
<stop offset="0.4" stop-color="#E26264" style="stop-color:#E26264;stop-color:color(display-p3 0.8863 0.3843 0.3922);stop-opacity:1;"/>
<stop offset="0.6" stop-color="#D26058" style="stop-color:#D26058;stop-color:color(display-p3 0.8235 0.3765 0.3451);stop-opacity:1;"/>
<stop offset="0.78" stop-color="#745BA2" style="stop-color:#745BA2;stop-color:color(display-p3 0.4549 0.3569 0.6353);stop-opacity:1;"/>
<stop offset="1" stop-color="#5352A0" style="stop-color:#5352A0;stop-color:color(display-p3 0.3255 0.3216 0.6275);stop-opacity:1;"/>
</linearGradient>
<linearGradient id="paint2_linear_101_2" x1="14.7026" y1="-3.61847" x2="183.319" y2="164.998" gradientUnits="userSpaceOnUse">
<stop stop-color="#F4DA0B" style="stop-color:#F4DA0B;stop-color:color(display-p3 0.9569 0.8549 0.0431);stop-opacity:1;"/>
<stop offset="0.18" stop-color="#EEB756" style="stop-color:#EEB756;stop-color:color(display-p3 0.9333 0.7176 0.3373);stop-opacity:1;"/>
<stop offset="0.4" stop-color="#E26264" style="stop-color:#E26264;stop-color:color(display-p3 0.8863 0.3843 0.3922);stop-opacity:1;"/>
<stop offset="0.6" stop-color="#D26058" style="stop-color:#D26058;stop-color:color(display-p3 0.8235 0.3765 0.3451);stop-opacity:1;"/>
<stop offset="0.78" stop-color="#745BA2" style="stop-color:#745BA2;stop-color:color(display-p3 0.4549 0.3569 0.6353);stop-opacity:1;"/>
<stop offset="1" stop-color="#5352A0" style="stop-color:#5352A0;stop-color:color(display-p3 0.3255 0.3216 0.6275);stop-opacity:1;"/>
</linearGradient>
<linearGradient id="paint3_linear_101_2" x1="-22.5709" y1="33.6591" x2="146.042" y2="202.272" gradientUnits="userSpaceOnUse">
<stop stop-color="#F4DA0B" style="stop-color:#F4DA0B;stop-color:color(display-p3 0.9569 0.8549 0.0431);stop-opacity:1;"/>
<stop offset="0.18" stop-color="#EEB756" style="stop-color:#EEB756;stop-color:color(display-p3 0.9333 0.7176 0.3373);stop-opacity:1;"/>
<stop offset="0.4" stop-color="#E26264" style="stop-color:#E26264;stop-color:color(display-p3 0.8863 0.3843 0.3922);stop-opacity:1;"/>
<stop offset="0.6" stop-color="#D26058" style="stop-color:#D26058;stop-color:color(display-p3 0.8235 0.3765 0.3451);stop-opacity:1;"/>
<stop offset="0.78" stop-color="#745BA2" style="stop-color:#745BA2;stop-color:color(display-p3 0.4549 0.3569 0.6353);stop-opacity:1;"/>
<stop offset="1" stop-color="#5352A0" style="stop-color:#5352A0;stop-color:color(display-p3 0.3255 0.3216 0.6275);stop-opacity:1;"/>
</linearGradient>
<linearGradient id="paint4_linear_101_2" x1="-23.6973" y1="34.7816" x2="144.919" y2="203.398" gradientUnits="userSpaceOnUse">
<stop stop-color="#F4DA0B" style="stop-color:#F4DA0B;stop-color:color(display-p3 0.9569 0.8549 0.0431);stop-opacity:1;"/>
<stop offset="0.18" stop-color="#EEB756" style="stop-color:#EEB756;stop-color:color(display-p3 0.9333 0.7176 0.3373);stop-opacity:1;"/>
<stop offset="0.4" stop-color="#E26264" style="stop-color:#E26264;stop-color:color(display-p3 0.8863 0.3843 0.3922);stop-opacity:1;"/>
<stop offset="0.6" stop-color="#D26058" style="stop-color:#D26058;stop-color:color(display-p3 0.8235 0.3765 0.3451);stop-opacity:1;"/>
<stop offset="0.78" stop-color="#745BA2" style="stop-color:#745BA2;stop-color:color(display-p3 0.4549 0.3569 0.6353);stop-opacity:1;"/>
<stop offset="1" stop-color="#5352A0" style="stop-color:#5352A0;stop-color:color(display-p3 0.3255 0.3216 0.6275);stop-opacity:1;"/>
</linearGradient>
<clipPath id="clip0_101_2">
<rect width="192" height="192" fill="white" style="fill:white;fill-opacity:1;"/>
</clipPath>
</defs>
</svg>

<svg xmlns="http://www.w3.org/2000/svg" width="192" height="192" fill="none"><g clip-path="url(#a)"><path fill="url(#b)" d="M115.093 17.723h26.88c6.362 0 11.52 5.158 11.52 11.52v19.2a7.68 7.68 0 0 1-7.68 7.68h-23.04a7.68 7.68 0 0 1-7.68-7.68z"/><path fill="url(#c)" d="M76.693 56.123h30.72a7.68 7.68 0 0 1 7.68 7.68v23.04a7.68 7.68 0 0 1-7.68 7.68h-30.72z"/><path fill="url(#d)" d="M122.773 94.523h23.04a7.68 7.68 0 0 1 7.68 7.68v19.2c0 6.362-5.158 11.52-11.52 11.52h-26.88v-30.72a7.68 7.68 0 0 1 7.68-7.68"/><path fill="url(#e)" d="M65.173 56.123c6.362 0 11.52-5.158 11.52-11.52v-26.88h-38.4c-21.208 0-38.4 17.191-38.4 38.4v115.2h38.4v-38.4h26.88c6.362 0 11.52-5.158 11.52-11.52v-15.36c0-6.362-5.158-11.52-11.52-11.52h-26.88v-38.4z"/><path fill="url(#f)" d="M76.693 132.923h30.72a7.68 7.68 0 0 1 7.68 7.68v30.72h-38.4z"/><path fill="#CE3F3D" d="M191.893 75.323c0-10.604-8.596-19.2-19.2-19.2s-19.2 8.596-19.2 19.2 8.596 19.2 19.2 19.2 19.2-8.596 19.2-19.2" style="fill:#ce3f3d;fill:color(display-p3 .8078 .2471 .2392);fill-opacity:1"/></g><defs><linearGradient id="b" x1="53.664" x2="222.28" y1="-42.58" y2="126.037" gradientUnits="userSpaceOnUse"><stop stop-color="#F4DA0B" style="stop-color:#f4da0b;stop-color:color(display-p3 .9569 .8549 .0431);stop-opacity:1"/><stop offset=".18" stop-color="#EEB756" style="stop-color:#eeb756;stop-color:color(display-p3 .9333 .7176 .3373);stop-opacity:1"/><stop offset=".4" stop-color="#E26264" style="stop-color:#e26264;stop-color:color(display-p3 .8863 .3843 .3922);stop-opacity:1"/><stop offset=".6" stop-color="#D26058" style="stop-color:#d26058;stop-color:color(display-p3 .8235 .3765 .3451);stop-opacity:1"/><stop offset=".78" stop-color="#745BA2" style="stop-color:#745ba2;stop-color:color(display-p3 .4549 .3569 .6353);stop-opacity:1"/><stop offset="1" stop-color="#5352A0" style="stop-color:#5352a0;stop-color:color(display-p3 .3255 .3216 .6275);stop-opacity:1"/></linearGradient><linearGradient id="c" x1="14.703" x2="183.319" y1="-3.618" y2="164.998" gradientUnits="userSpaceOnUse"><stop stop-color="#F4DA0B" style="stop-color:#f4da0b;stop-color:color(display-p3 .9569 .8549 .0431);stop-opacity:1"/><stop offset=".18" stop-color="#EEB756" style="stop-color:#eeb756;stop-color:color(display-p3 .9333 .7176 .3373);stop-opacity:1"/><stop offset=".4" stop-color="#E26264" style="stop-color:#e26264;stop-color:color(display-p3 .8863 .3843 .3922);stop-opacity:1"/><stop offset=".6" stop-color="#D26058" style="stop-color:#d26058;stop-color:color(display-p3 .8235 .3765 .3451);stop-opacity:1"/><stop offset=".78" stop-color="#745BA2" style="stop-color:#745ba2;stop-color:color(display-p3 .4549 .3569 .6353);stop-opacity:1"/><stop offset="1" stop-color="#5352A0" style="stop-color:#5352a0;stop-color:color(display-p3 .3255 .3216 .6275);stop-opacity:1"/></linearGradient><linearGradient id="d" x1="14.703" x2="183.319" y1="-3.618" y2="164.998" gradientUnits="userSpaceOnUse"><stop stop-color="#F4DA0B" style="stop-color:#f4da0b;stop-color:color(display-p3 .9569 .8549 .0431);stop-opacity:1"/><stop offset=".18" stop-color="#EEB756" style="stop-color:#eeb756;stop-color:color(display-p3 .9333 .7176 .3373);stop-opacity:1"/><stop offset=".4" stop-color="#E26264" style="stop-color:#e26264;stop-color:color(display-p3 .8863 .3843 .3922);stop-opacity:1"/><stop offset=".6" stop-color="#D26058" style="stop-color:#d26058;stop-color:color(display-p3 .8235 .3765 .3451);stop-opacity:1"/><stop offset=".78" stop-color="#745BA2" style="stop-color:#745ba2;stop-color:color(display-p3 .4549 .3569 .6353);stop-opacity:1"/><stop offset="1" stop-color="#5352A0" style="stop-color:#5352a0;stop-color:color(display-p3 .3255 .3216 .6275);stop-opacity:1"/></linearGradient><linearGradient id="e" x1="-22.571" x2="146.042" y1="33.659" y2="202.272" gradientUnits="userSpaceOnUse"><stop stop-color="#F4DA0B" style="stop-color:#f4da0b;stop-color:color(display-p3 .9569 .8549 .0431);stop-opacity:1"/><stop offset=".18" stop-color="#EEB756" style="stop-color:#eeb756;stop-color:color(display-p3 .9333 .7176 .3373);stop-opacity:1"/><stop offset=".4" stop-color="#E26264" style="stop-color:#e26264;stop-color:color(display-p3 .8863 .3843 .3922);stop-opacity:1"/><stop offset=".6" stop-color="#D26058" style="stop-color:#d26058;stop-color:color(display-p3 .8235 .3765 .3451);stop-opacity:1"/><stop offset=".78" stop-color="#745BA2" style="stop-color:#745ba2;stop-color:color(display-p3 .4549 .3569 .6353);stop-opacity:1"/><stop offset="1" stop-color="#5352A0" style="stop-color:#5352a0;stop-color:color(display-p3 .3255 .3216 .6275);stop-opacity:1"/></linearGradient><linearGradient id="f" x1="-23.697" x2="144.919" y1="34.782" y2="203.398" gradientUnits="userSpaceOnUse"><stop stop-color="#F4DA0B" style="stop-color:#f4da0b;stop-color:color(display-p3 .9569 .8549 .0431);stop-opacity:1"/><stop offset=".18" stop-color="#EEB756" style="stop-color:#eeb756;stop-color:color(display-p3 .9333 .7176 .3373);stop-opacity:1"/><stop offset=".4" stop-color="#E26264" style="stop-color:#e26264;stop-color:color(display-p3 .8863 .3843 .3922);stop-opacity:1"/><stop offset=".6" stop-color="#D26058" style="stop-color:#d26058;stop-color:color(display-p3 .8235 .3765 .3451);stop-opacity:1"/><stop offset=".78" stop-color="#745BA2" style="stop-color:#745ba2;stop-color:color(display-p3 .4549 .3569 .6353);stop-opacity:1"/><stop offset="1" stop-color="#5352A0" style="stop-color:#5352a0;stop-color:color(display-p3 .3255 .3216 .6275);stop-opacity:1"/></linearGradient><clipPath id="a"><path fill="#fff" d="M0 0h192v192H0z" style="fill:#fff;fill-opacity:1"/></clipPath></defs></svg>
